; generated by Slic3r 1.2.9 on 2015-11-28 at 13:42:21

; external perimeters extrusion width = 0.35mm
; perimeters extrusion width = 0.59mm
; infill extrusion width = 0.98mm
; solid infill extrusion width = 0.59mm
; top infill extrusion width = 0.59mm

M107
M190 S65 ; set bed temperature
M104 S220 ; set temperature
G28 ; home all axes
G1 Z5 F5000 ; lift nozzle
M109 S220 ; wait for temperature to be reached
G21 ; set units to millimeters
G90 ; use absolute coordinates
M82 ; use absolute distances for extrusion
G92 E0
G1 E-1.00000 F1800.00000
G92 E0
G1 Z0.350 F7800.000
G1 X64.915 Y55.253 F7800.000
G1 E1.00000 F1800.00000
G1 X66.668 Y53.774 E1.20854 F1080.000
G1 X68.820 Y52.981 E1.41708
G1 X70.000 Y52.875 E1.52479
G1 X130.000 Y52.875 E6.98057
G1 X132.259 Y53.272 E7.18911
G1 X134.247 Y54.415 E7.39765 F1080.000
G1 X135.726 Y56.168 E7.60620
G1 X136.519 Y58.320 E7.81474
G1 X136.625 Y59.500 E7.92245
G1 X136.625 Y190.500 E19.83422
G1 X136.228 Y192.759 E20.04276
G1 X135.085 Y194.747 E20.25131
G1 X133.332 Y196.226 E20.45985
G1 X131.180 Y197.019 E20.66839
G1 X130.000 Y197.125 E20.77610
G1 X70.000 Y197.125 E26.23187
G1 X67.741 Y196.728 E26.44042
G1 X65.753 Y195.585 E26.64896
G1 X64.274 Y193.832 E26.85750
G1 X63.481 Y191.680 E27.06604
G1 X63.375 Y190.500 E27.17375
G1 X63.375 Y59.500 E39.08553
G1 X63.772 Y57.241 E39.29407
G1 X64.889 Y55.299 E39.49784
G1 E38.49784 F1800.00000
G92 E0
G1 X68.035 Y58.372 F7800.000
G1 E1.00000 F1800.00000
G1 X69.094 Y57.313 E1.13623 F1080.000
G1 X130.906 Y57.313 E6.75676
G1 X132.187 Y58.594 E6.92151
G1 X132.187 Y70.406 E7.99556 F1080.000
G1 X130.906 Y71.687 E8.16031
G1 X127.836 Y71.687 E8.43947
G1 X127.585 Y71.804 E8.46467
G1 X108.744 Y94.258 E11.12995
G1 X108.744 Y94.713 E11.17131
G1 X128.028 Y117.696 E13.89937
G1 X128.280 Y117.813 E13.92456
G1 X130.906 Y117.813 E14.16338
G1 X132.187 Y119.094 E14.32813
G1 X132.187 Y130.906 E15.40218
G1 X130.906 Y132.187 E15.56693
G1 X128.255 Y132.187 E15.80795
G1 X128.004 Y132.304 E15.83315
G1 X108.744 Y155.258 E18.55778
G1 X108.744 Y155.713 E18.59914
G1 X127.609 Y178.196 E21.26785
G1 X127.860 Y178.313 E21.29304
G1 X130.906 Y178.313 E21.57001
G1 X132.187 Y179.594 E21.73476
G1 X132.187 Y191.406 E22.80881
G1 X130.906 Y192.687 E22.97356
G1 X69.094 Y192.687 E28.59408
G1 X67.813 Y191.406 E28.75884
G1 X67.813 Y179.594 E29.83288
G1 X69.094 Y178.313 E29.99764
G1 X70.481 Y178.313 E30.12378
G1 X70.732 Y178.196 E30.14897
G1 X89.598 Y155.713 E32.81768
G1 X89.598 Y155.258 E32.85904
G1 X70.337 Y132.304 E35.58367
G1 X70.086 Y132.187 E35.60887
G1 X69.094 Y132.187 E35.69906
G1 X67.813 Y130.906 E35.86381
G1 X67.813 Y119.094 E36.93786
G1 X69.094 Y117.813 E37.10261
G1 X70.062 Y117.813 E37.19060
G1 X70.313 Y117.696 E37.21579
G1 X89.598 Y94.713 E39.94385
G1 X89.598 Y94.258 E39.98521
G1 X70.757 Y71.804 E42.65050
G1 X70.505 Y71.687 E42.67569
G1 X69.094 Y71.687 E42.80403
G1 X67.813 Y70.406 E42.96878
G1 X67.813 Y58.594 E44.04283
G1 X67.998 Y58.409 E44.06658
G1 X68.477 Y58.814 F7800.000
G1 X69.353 Y57.938 E44.17927 F1080.000
G1 X130.647 Y57.938 E49.75273
G1 X131.562 Y58.853 E49.87041 F1080.000
G1 X131.562 Y70.147 E50.89738
G1 X130.647 Y71.062 E51.01506
G1 X127.544 Y71.062 E51.29719
G1 X127.293 Y71.179 E51.32238
G1 X107.928 Y94.258 E54.06184
G1 X107.928 Y94.713 E54.10320
G1 X127.737 Y118.321 E56.90543
G1 X127.988 Y118.438 E56.93063
G1 X130.647 Y118.438 E57.17241
G1 X131.562 Y119.353 E57.29009
G1 X131.562 Y130.647 E58.31706
G1 X130.647 Y131.562 E58.43474
G1 X127.964 Y131.562 E58.67872
G1 X127.713 Y131.679 E58.70391
G1 X107.928 Y155.258 E61.50272
G1 X107.928 Y155.713 E61.54408
G1 X127.318 Y178.821 E64.28697
G1 X127.569 Y178.938 E64.31216
G1 X130.647 Y178.938 E64.59208
G1 X131.562 Y179.853 E64.70976
G1 X131.562 Y191.147 E65.73674
G1 X130.647 Y192.062 E65.85442
G1 X69.353 Y192.062 E71.42787
G1 X68.438 Y191.147 E71.54555
G1 X68.438 Y179.853 E72.57253
G1 X69.353 Y178.938 E72.69021
G1 X70.773 Y178.938 E72.81931
G1 X71.024 Y178.821 E72.84450
G1 X90.413 Y155.713 E75.58738
G1 X90.413 Y155.258 E75.62874
G1 X70.628 Y131.679 E78.42756
G1 X70.377 Y131.562 E78.45275
G1 X69.353 Y131.562 E78.54590
G1 X68.438 Y130.647 E78.66358
G1 X68.438 Y119.353 E79.69056
G1 X69.353 Y118.438 E79.80824
G1 X70.353 Y118.438 E79.89919
G1 X70.604 Y118.321 E79.92438
G1 X90.413 Y94.713 E82.72661
G1 X90.413 Y94.258 E82.76797
G1 X71.048 Y71.179 E85.50743
G1 X70.797 Y71.062 E85.53263
G1 X69.353 Y71.062 E85.66393
G1 X68.438 Y70.147 E85.78161
G1 X68.439 Y58.851 E86.80873
G1 X69.063 Y59.112 F7800.000
G1 X69.612 Y58.563 E86.87934 F1080.000
G1 X130.388 Y58.563 E92.40572
G1 X130.937 Y59.112 E92.47633
G1 X130.937 Y69.888 E93.45623 F1080.000
G1 X130.388 Y70.437 E93.52684
G1 X127.253 Y70.437 E93.81193
G1 X127.002 Y70.554 E93.83712
G1 X107.112 Y94.258 E96.65075
G1 X107.112 Y94.713 E96.69212
G1 X127.446 Y118.946 E99.56852
G1 X127.697 Y119.063 E99.59371
G1 X130.388 Y119.063 E99.83845
G1 X130.937 Y119.612 E99.90906
G1 X130.937 Y130.388 E100.88896
G1 X130.388 Y130.937 E100.95957
G1 X127.673 Y130.937 E101.20651
G1 X127.421 Y131.054 E101.23170
G1 X107.112 Y155.258 E104.10469
G1 X107.112 Y155.713 E104.14605
G1 X127.026 Y179.446 E106.96311
G1 X127.277 Y179.563 E106.98830
G1 X130.388 Y179.563 E107.27118
G1 X130.937 Y180.112 E107.34179
G1 X130.937 Y190.888 E108.32169
G1 X130.388 Y191.437 E108.39230
G1 X69.612 Y191.437 E113.91869
G1 X69.063 Y190.888 E113.98929
G1 X69.063 Y180.112 E114.96920
G1 X69.612 Y179.563 E115.03980
G1 X71.064 Y179.563 E115.17186
G1 X71.315 Y179.446 E115.19706
G1 X91.229 Y155.713 E118.01411
G1 X91.229 Y155.258 E118.05548
G1 X70.920 Y131.054 E120.92846
G1 X70.669 Y130.937 E120.95366
G1 X69.612 Y130.937 E121.04976
G1 X69.063 Y130.388 E121.12037
G1 X69.063 Y119.612 E122.10028
G1 X69.612 Y119.063 E122.17088
G1 X70.645 Y119.063 E122.26480
G1 X70.896 Y118.946 E122.28999
G1 X91.229 Y94.713 E125.16639
G1 X91.229 Y94.258 E125.20776
G1 X71.339 Y70.554 E128.02139
G1 X71.088 Y70.437 E128.04659
G1 X69.612 Y70.437 E128.18084
G1 X69.063 Y69.888 E128.25145
G1 X69.063 Y59.164 E129.22658
G1 E128.22658 F1800.00000
G92 E0
G1 X69.688 Y69.629 F7800.000
G1 E1.00000 F1800.00000
G1 X69.688 Y59.371 E1.93283 F1080.000
G1 X69.871 Y59.188 E1.95637
G1 X130.129 Y59.188 E7.43568
G1 X130.312 Y59.371 E7.45921
G1 X130.312 Y69.629 E8.39205
G1 X130.129 Y69.812 E8.41558
G1 X126.962 Y69.812 E8.70363
G1 X126.711 Y69.930 E8.72882
G1 X106.296 Y94.258 E11.61663
G1 X106.296 Y94.713 E11.65799
G1 X127.154 Y119.570 E14.60857
G1 X127.405 Y119.688 E14.63376
G1 X130.129 Y119.688 E14.88146
G1 X130.312 Y119.871 E14.90500
G1 X130.312 Y130.129 E15.83783
G1 X130.129 Y130.312 E15.86137
G1 X127.381 Y130.312 E16.11126
G1 X127.130 Y130.430 E16.13646
G1 X106.296 Y155.258 E19.08362
G1 X106.296 Y155.713 E19.12498
G1 X126.735 Y180.070 E22.01621
G1 X126.986 Y180.188 E22.04140
G1 X130.129 Y180.188 E22.32725
G1 X130.312 Y180.371 E22.35078
G1 X130.312 Y190.629 E23.28361
G1 X130.129 Y190.812 E23.30715
G1 X69.871 Y190.812 E28.78646
G1 X69.688 Y190.629 E28.81000
G1 X69.688 Y180.371 E29.74283
G1 X69.871 Y180.188 E29.76636
G1 X71.355 Y180.188 E29.90138
G1 X71.607 Y180.070 E29.92658
G1 X92.045 Y155.713 E32.81781
G1 X92.045 Y155.258 E32.85917
G1 X71.211 Y130.430 E35.80633
G1 X70.960 Y130.312 E35.83152
G1 X69.871 Y130.312 E35.93059
G1 X69.688 Y130.129 E35.95413
G1 X69.688 Y119.871 E36.88696
G1 X69.871 Y119.688 E36.91050
G1 X70.936 Y119.688 E37.00737
G1 X71.187 Y119.570 E37.03256
G1 X92.045 Y94.713 E39.98314
G1 X92.045 Y94.258 E40.02450
G1 X71.631 Y69.930 E42.91231
G1 X71.380 Y69.812 E42.93751
G1 X69.871 Y69.812 E43.07472
G1 X69.725 Y69.667 E43.09349
G1 E42.09349 F1800.00000
G92 E0
G1 X105.241 Y155.486 F7800.000
G1 E1.00000 F1800.00000
G1 X126.524 Y180.850 E4.01076 F378.000
G1 X129.650 Y180.850 E4.29500
G1 X129.650 Y190.150 E5.14064
G1 X70.350 Y190.150 E10.53277
G1 X70.350 Y180.850 E11.37841
G1 X71.817 Y180.850 E11.51183
G1 X93.100 Y155.486 E14.52258
G1 X71.422 Y129.650 E17.58927
G1 X70.350 Y129.650 E17.68674
G1 X70.350 Y120.350 E18.53238
G1 X71.398 Y120.350 E18.62765
G1 X93.100 Y94.486 E21.69775
G1 X71.841 Y69.150 E24.70509
G1 X70.350 Y69.150 E24.84071
G1 X70.350 Y59.850 E25.68635
G1 X129.650 Y59.850 E31.07847
G1 X129.650 Y69.150 E31.92412
G1 X126.500 Y69.150 E32.21056
G1 X105.241 Y94.486 E35.21790
G1 X126.944 Y120.350 E38.28800
G1 X129.650 Y120.350 E38.53410
G1 X129.650 Y129.650 E39.37974
G1 X126.919 Y129.650 E39.62803
G1 X105.275 Y155.445 E42.68995
G1 X104.986 Y155.726 F7800.000
G1 X104.425 Y155.486 F7800.000
G1 X126.233 Y181.475 E45.77488 F540.000
G1 X129.025 Y181.475 E46.02879
G1 X129.025 Y189.525 E46.76079
G1 X70.975 Y189.525 E52.03928
G1 X70.975 Y181.475 E52.77128
G1 X72.109 Y181.475 E52.87437
G1 X93.916 Y155.486 E55.95930
G1 X71.713 Y129.025 E59.10017
G1 X70.975 Y129.025 E59.16730
G1 X70.975 Y120.975 E59.89931
G1 X71.689 Y120.975 E59.96425
G1 X93.916 Y94.486 E63.10853
G1 X72.133 Y68.525 E66.19004
G1 X70.975 Y68.525 E66.29533
G1 X70.975 Y60.475 E67.02733
G1 X129.025 Y60.475 E72.30582
G1 X129.025 Y68.525 E73.03782
G1 X126.209 Y68.525 E73.29393
G1 X104.425 Y94.486 E76.37545
G1 X126.652 Y120.975 E79.51973
G1 X129.025 Y120.975 E79.73549
G1 X129.025 Y129.025 E80.46750
G1 X126.628 Y129.025 E80.68547
G1 X104.459 Y155.445 E83.82155
G1 X103.609 Y155.486 F7800.000
G1 X125.941 Y182.100 E86.98066 F540.000
G1 X128.400 Y182.100 E87.20425
G1 X128.400 Y188.900 E87.82261
G1 X71.600 Y188.900 E92.98745
G1 X71.600 Y182.100 E93.60581
G1 X72.400 Y182.100 E93.67858
G1 X94.732 Y155.486 E96.83768
G1 X72.005 Y128.400 E100.05272
G1 X71.600 Y128.400 E100.08953
G1 X71.600 Y121.600 E100.70790
G1 X71.980 Y121.600 E100.74251
G1 X94.732 Y94.486 E103.96097
G1 X72.424 Y67.900 E107.11665
G1 X71.600 Y67.900 E107.19162
G1 X71.600 Y61.100 E107.80998
G1 X128.400 Y61.100 E112.97482
G1 X128.400 Y67.900 E113.59318
G1 X125.917 Y67.900 E113.81897
G1 X103.609 Y94.486 E116.97466
G1 X126.361 Y121.600 E120.19311
G1 X128.400 Y121.600 E120.37856
G1 X128.400 Y128.400 E120.99692
G1 X126.337 Y128.400 E121.18456
G1 X103.643 Y155.445 E124.39482
G1 E123.39482 F1800.00000
G92 E0
G1 X99.171 Y87.252 F7800.000
G1 E1.00000 F1800.00000
G1 X83.982 Y69.150 E3.14865 F378.000
G1 X114.360 Y69.150 E5.91090
G1 X99.204 Y87.211 E8.05477
G1 X98.916 Y87.492 F7800.000
G1 X99.171 Y88.224 F7800.000
G1 X82.642 Y68.525 E10.39299 F540.000
G1 X115.700 Y68.525 E13.39894
G1 X99.204 Y88.183 E15.73239
G1 X99.171 Y89.196 F7800.000
G1 X81.302 Y67.900 E18.26018 F540.000
G1 X117.040 Y67.900 E21.50984
G1 X99.204 Y89.156 E24.03285
G1 X99.171 Y101.720 F7800.000
G1 X114.803 Y120.350 E26.24427 F378.000
G1 X83.538 Y120.350 E29.08721
G1 X99.137 Y101.760 E31.29385
G1 X99.425 Y101.480 F7800.000
G1 X99.171 Y100.748 F7800.000
G1 X116.143 Y120.975 E33.69484 F540.000
G1 X82.198 Y120.975 E36.78149
G1 X99.137 Y100.788 E39.17770
G1 X99.171 Y99.775 F7800.000
G1 X117.483 Y121.600 E41.76826 F540.000
G1 X80.858 Y121.600 E45.09861
G1 X99.137 Y99.816 E47.68439
G1 E46.68439 F1800.00000
G92 E0
G1 X83.562 Y129.650 F7800.000
G1 E1.00000 F1800.00000
G1 X114.779 Y129.650 E3.83855 F378.000
G1 X99.171 Y148.252 E6.04656
G1 X83.596 Y129.690 E8.24978
G1 X83.481 Y129.309 F7800.000
G1 X82.222 Y129.025 F7800.000
G1 X116.119 Y129.025 E11.33204 F540.000
G1 X99.171 Y149.224 E13.72961
G1 X82.256 Y129.065 E16.12240
G1 X80.882 Y128.400 F7800.000
G1 X117.459 Y128.400 E19.44837 F540.000
G1 X99.171 Y150.196 E22.03551
G1 X80.916 Y128.440 E24.61787
G1 X99.171 Y162.719 F7800.000
G1 X114.384 Y180.850 E26.76996 F378.000
G1 X83.958 Y180.850 E29.53661
G1 X99.137 Y162.760 E31.68391
G1 X99.425 Y162.479 F7800.000
G1 X99.171 Y161.747 F7800.000
G1 X115.724 Y181.475 E34.02557 F540.000
G1 X82.617 Y181.475 E37.03592
G1 X99.137 Y161.788 E39.37279
G1 X99.171 Y160.775 F7800.000
G1 X117.064 Y182.100 E41.90402 F540.000
G1 X81.277 Y182.100 E45.15807
G1 X99.137 Y160.815 E47.68451
G1 E46.68451 F1800.00000
G92 E0
G1 X72.131 Y61.631 F7800.000
G1 E1.00000 F1800.00000
G1 X127.869 Y61.631 E6.07946 F1080.000
G1 X127.869 Y67.369 E6.60239
G1 X125.669 Y67.369 E6.80284
G1 X102.916 Y94.486 E10.02870
G1 X126.113 Y122.131 E13.31746
G1 X127.869 Y122.131 E13.47748
G1 X127.869 Y127.869 E14.00040
G1 X126.089 Y127.869 E14.16263
G1 X102.916 Y155.486 E17.44796
G1 X125.694 Y182.631 E20.67725
G1 X127.869 Y182.631 E20.87550
G1 X127.869 Y188.369 E21.39842
G1 X72.131 Y188.369 E26.47788
G1 X72.131 Y182.631 E27.00081
G1 X72.648 Y182.631 E27.04790
G1 X95.425 Y155.486 E30.27718
G1 X72.252 Y127.869 E33.56252
G1 X72.131 Y127.869 E33.57358
G1 X72.131 Y122.131 E34.09651
G1 X72.228 Y122.131 E34.10537
G1 X95.425 Y94.486 E37.39413
G1 X72.672 Y67.369 E40.61998
G1 X72.131 Y67.369 E40.66928
G1 X72.131 Y61.683 E41.18742
G1 X72.757 Y62.257 F7800.000
G1 X127.243 Y62.257 E46.15274 F1080.000
G1 X127.243 Y66.743 E46.56152
G1 X125.377 Y66.743 E46.73151
G1 X102.098 Y94.486 E50.03187
G1 X125.821 Y122.757 E53.39514
G1 X127.243 Y122.757 E53.52470
G1 X127.243 Y127.243 E53.93348
G1 X125.797 Y127.243 E54.06524
G1 X102.098 Y155.486 E57.42508
G1 X125.402 Y183.257 E60.72887
G1 X127.243 Y183.257 E60.89666
G1 X127.243 Y187.743 E61.30544
G1 X72.757 Y187.743 E66.27075
G1 X72.757 Y183.257 E66.67953
G1 X72.940 Y183.257 E66.69617
G1 X96.243 Y155.486 E69.99995
G1 X72.757 Y127.496 E73.32962
G1 X72.757 Y122.475 E73.78725
G1 X96.243 Y94.486 E77.11691
G1 X72.964 Y66.743 E80.41727
G1 X72.757 Y66.743 E80.43611
G1 X72.757 Y62.310 E80.84010
G1 X73.383 Y62.883 F7800.000
G1 X126.617 Y62.883 E85.69128 F1080.000
G1 X126.617 Y66.117 E85.98591
G1 X125.085 Y66.117 E86.12545
G1 X101.281 Y94.486 E89.50031
G1 X125.529 Y123.383 E92.93808
G1 X126.617 Y123.383 E93.03718
G1 X126.617 Y126.617 E93.33181
G1 X125.505 Y126.617 E93.43312
G1 X101.281 Y155.486 E96.86746
G1 X125.110 Y183.883 E100.24575
G1 X126.617 Y183.883 E100.38308
G1 X126.617 Y187.117 E100.67771
G1 X73.383 Y187.117 E105.52889
G1 X73.383 Y183.703 E105.84000
G1 X97.060 Y155.486 E109.19678
G1 X73.383 Y127.269 E112.55356
G1 X73.383 Y122.703 E112.96965
G1 X97.060 Y94.486 E116.32643
G1 X73.383 Y66.269 E119.68321
G1 X73.383 Y62.936 E119.98691
G1 X74.010 Y63.510 F7800.000
G1 X125.990 Y63.510 E124.72393 F1080.000
G1 X125.990 Y65.490 E124.90442
G1 X124.793 Y65.490 E125.01350
G1 X100.463 Y94.486 E128.46286
G1 X125.237 Y124.010 E131.97513
G1 X125.990 Y124.010 E132.04378
G1 X125.990 Y125.990 E132.22427
G1 X125.213 Y125.990 E132.29512
G1 X100.463 Y155.486 E135.80396
G1 X124.818 Y184.510 E139.25675
G1 X125.990 Y184.510 E139.36362
G1 X125.990 Y186.490 E139.54411
G1 X74.010 Y186.490 E144.28114
G1 X74.010 Y183.931 E144.51440
G1 X97.878 Y155.486 E147.89830
G1 X74.010 Y127.041 E151.28220
G1 X74.010 Y122.931 E151.65674
G1 X97.878 Y94.486 E155.04064
G1 X74.010 Y66.041 E158.42454
G1 X74.010 Y63.562 E158.65039
G1 E157.65039 F1800.00000
G92 E0
G1 X75.714 Y125.990 F7800.000
G1 E1.00000 F1800.00000
G1 X122.628 Y125.990 E5.27528 F1080.000
G1 X99.171 Y153.945 E8.60086
G1 X75.748 Y126.030 E11.92165
G1 X77.057 Y126.617 F7800.000
G1 X121.284 Y126.617 E15.95214 F1080.000
G1 X99.171 Y152.971 E19.08731
G1 X77.091 Y126.657 E22.21769
G1 X78.400 Y127.243 F7800.000
G1 X119.941 Y127.243 E26.00340 F1080.000
G1 X99.171 Y151.996 E28.94816
G1 X78.434 Y127.283 E31.88813
G1 X79.743 Y127.869 F7800.000
G1 X118.598 Y127.869 E35.42905 F1080.000
G1 X99.171 Y151.022 E38.18340
G1 X79.777 Y127.909 E40.93296
G1 X75.690 Y124.010 F7800.000
G1 X99.171 Y96.026 E44.26196 F1080.000
G1 X122.652 Y124.010 E47.59096
G1 X75.742 Y124.010 E51.86586
G1 X77.033 Y123.383 F7800.000
G1 X99.171 Y97.000 E55.00444 F1080.000
G1 X121.309 Y123.383 E58.14304
G1 X77.085 Y123.383 E62.17314
G1 X78.376 Y122.757 F7800.000
G1 X99.171 Y97.975 E65.12132 F1080.000
G1 X119.965 Y122.757 E68.06951
G1 X78.428 Y122.757 E71.85483
G1 X79.719 Y122.131 F7800.000
G1 X99.171 Y98.949 E74.61260 F1080.000
G1 X118.622 Y122.131 E77.37038
G1 X79.771 Y122.131 E80.91091
G1 X74.636 Y123.159 F7800.000
G1 X98.695 Y94.486 E84.32193 F1080.000
G1 X74.636 Y65.813 E87.73294
G1 X74.636 Y64.136 E87.88573
G1 X125.364 Y64.136 E92.50861
G1 X125.364 Y64.864 E92.57496
G1 X124.501 Y64.864 E92.65358
G1 X99.646 Y94.486 E96.17744
G1 X124.945 Y124.636 E99.76422
G1 X125.364 Y124.636 E99.80240
G1 X125.364 Y125.364 E99.86874
G1 X124.921 Y125.364 E99.90913
