; generated by Slic3r 1.2.9 on 2015-11-28 at 13:41:46

; external perimeters extrusion width = 0.35mm
; perimeters extrusion width = 0.59mm
; infill extrusion width = 0.98mm
; solid infill extrusion width = 0.59mm
; top infill extrusion width = 0.59mm

M107
M190 S65 ; set bed temperature
M104 S220 ; set temperature
G28 ; home all axes
G1 Z5 F5000 ; lift nozzle
M109 S220 ; wait for temperature to be reached
G21 ; set units to millimeters
G90 ; use absolute coordinates
M82 ; use absolute distances for extrusion
G92 E0
G1 E-1.00000 F1800.00000
G92 E0
G1 Z0.350 F7800.000
G1 X76.915 Y100.522 F7800.000
G1 E1.00000 F1800.00000
G1 X78.793 Y99.205 E1.20854 F1080.000
G1 X79.884 Y98.807 E1.31417
G1 X81.788 Y98.297 E1.49339
G1 X83.503 Y98.071 E1.65070
G1 X116.497 Y98.071 E4.65083
G1 X118.212 Y98.297 E4.80814
G1 X120.116 Y98.807 E4.98737 F1080.000
G1 X122.195 Y99.776 E5.19591
G1 X123.085 Y100.522 E5.30153
G1 X124.478 Y101.915 E5.48066
G1 X125.795 Y103.793 E5.68920
G1 X126.193 Y104.884 E5.79483
G1 X126.703 Y106.788 E5.97405
G1 X126.929 Y108.503 E6.13136
G1 X126.929 Y141.497 E9.13149
G1 X126.703 Y143.212 E9.28880
G1 X126.193 Y145.116 E9.46802
G1 X125.224 Y147.195 E9.67656
G1 X124.478 Y148.085 E9.78219
G1 X123.085 Y149.478 E9.96131
G1 X121.207 Y150.795 E10.16985
G1 X120.116 Y151.193 E10.27548
G1 X118.212 Y151.703 E10.45471
G1 X116.497 Y151.929 E10.61201
G1 X83.503 Y151.929 E13.61215
G1 X81.788 Y151.703 E13.76945
G1 X79.884 Y151.193 E13.94868
G1 X77.805 Y150.224 E14.15722
G1 X76.915 Y149.478 E14.26285
G1 X75.522 Y148.085 E14.44197
G1 X74.205 Y146.207 E14.65051
G1 X73.807 Y145.116 E14.75614
G1 X73.297 Y143.212 E14.93537
G1 X73.071 Y141.497 E15.09267
G1 X73.071 Y108.503 E18.09280
G1 X73.297 Y106.788 E18.25011
G1 X73.807 Y104.884 E18.42933
G1 X74.776 Y102.805 E18.63788
G1 X75.522 Y101.915 E18.74351
G1 X76.878 Y100.559 E18.91785
G1 E17.91785 F1800.00000
G92 E0
G1 X80.053 Y103.660 F7800.000
G1 E1.00000 F1800.00000
G1 X80.256 Y103.456 E1.02618 F1080.000
G1 X80.755 Y103.168 E1.07853
G1 X83.075 Y102.546 E1.29697
G1 X83.360 Y102.509 E1.32305
G1 X116.640 Y102.509 E4.34926
G1 X116.925 Y102.546 E4.37534
G1 X119.245 Y103.168 E4.59378 F1080.000
G1 X119.744 Y103.456 E4.64613
G1 X121.544 Y105.256 E4.87761
G1 X121.832 Y105.755 E4.92997
G1 X122.454 Y108.075 E5.14840
G1 X122.491 Y108.360 E5.17448
G1 X122.491 Y141.640 E8.20069
G1 X122.454 Y141.925 E8.22677
G1 X121.832 Y144.245 E8.44521
G1 X121.544 Y144.744 E8.49756
G1 X119.744 Y146.544 E8.72904
G1 X119.245 Y146.832 E8.78139
G1 X116.925 Y147.454 E8.99983
G1 X116.640 Y147.491 E9.02591
G1 X83.360 Y147.491 E12.05212
G1 X83.075 Y147.454 E12.07820
G1 X80.755 Y146.832 E12.29664
G1 X80.256 Y146.544 E12.34899
G1 X78.456 Y144.744 E12.58047
G1 X78.168 Y144.245 E12.63282
G1 X77.546 Y141.925 E12.85126
G1 X77.509 Y141.640 E12.87734
G1 X77.509 Y108.360 E15.90355
G1 X77.546 Y108.075 E15.92963
G1 X78.168 Y105.755 E16.14807
G1 X78.456 Y105.256 E16.20042
G1 X80.016 Y103.697 E16.40095
G1 X80.495 Y104.102 F7800.000
G1 X80.640 Y103.956 E16.41964 F1080.000
G1 X80.996 Y103.751 E16.45704
G1 X83.197 Y103.161 E16.66428
G1 X83.401 Y103.134 E16.68290
G1 X116.599 Y103.134 E19.70166
G1 X116.803 Y103.161 E19.72029 F1080.000
G1 X119.004 Y103.751 E19.92752
G1 X119.360 Y103.956 E19.96492
G1 X121.044 Y105.640 E20.18144
G1 X121.249 Y105.996 E20.21883
G1 X121.839 Y108.197 E20.42607
G1 X121.866 Y108.401 E20.44469
G1 X121.866 Y141.599 E23.46345
G1 X121.839 Y141.803 E23.48208
G1 X121.249 Y144.004 E23.68931
G1 X121.044 Y144.360 E23.72671
G1 X119.360 Y146.044 E23.94323
G1 X119.004 Y146.249 E23.98062
G1 X116.803 Y146.839 E24.18786
G1 X116.599 Y146.866 E24.20648
G1 X83.401 Y146.866 E27.22524
G1 X83.197 Y146.839 E27.24387
G1 X80.996 Y146.249 E27.45110
G1 X80.640 Y146.044 E27.48850
G1 X78.956 Y144.360 E27.70502
G1 X78.751 Y144.004 E27.74241
G1 X78.161 Y141.803 E27.94965
G1 X78.134 Y141.599 E27.96828
G1 X78.134 Y108.401 E30.98703
G1 X78.161 Y108.197 E31.00566
G1 X78.751 Y105.996 E31.21290
G1 X78.956 Y105.640 E31.25029
G1 X80.457 Y104.139 E31.44334
G1 X80.936 Y104.544 F7800.000
G1 X81.024 Y104.456 E31.45455 F1080.000
G1 X81.237 Y104.333 E31.47699
G1 X83.320 Y103.775 E31.67302
G1 X83.442 Y103.759 E31.68420
G1 X116.558 Y103.759 E34.69551
G1 X116.680 Y103.775 E34.70668
G1 X118.763 Y104.333 E34.90271 F1080.000
G1 X118.976 Y104.456 E34.92515
G1 X120.544 Y106.024 E35.12671
G1 X120.667 Y106.237 E35.14915
G1 X121.225 Y108.320 E35.34518
G1 X121.241 Y108.442 E35.35635
G1 X121.241 Y141.558 E38.36766
G1 X121.225 Y141.680 E38.37884
G1 X120.667 Y143.763 E38.57486
G1 X120.544 Y143.976 E38.59730
G1 X118.976 Y145.544 E38.79886
G1 X118.763 Y145.667 E38.82130
G1 X116.680 Y146.225 E39.01733
G1 X116.558 Y146.241 E39.02850
G1 X83.442 Y146.241 E42.03981
G1 X83.320 Y146.225 E42.05099
G1 X81.237 Y145.667 E42.24702
G1 X81.024 Y145.544 E42.26946
G1 X79.456 Y143.976 E42.47101
G1 X79.333 Y143.763 E42.49345
G1 X78.775 Y141.680 E42.68948
G1 X78.759 Y141.558 E42.70066
G1 X78.759 Y108.442 E45.71196
G1 X78.775 Y108.320 E45.72314
G1 X79.333 Y106.237 E45.91917
G1 X79.456 Y106.024 E45.94161
G1 X80.899 Y104.581 E46.12717
G1 X81.378 Y104.985 F7800.000
G1 X81.479 Y104.915 E46.13831 F1080.000
G1 X83.483 Y104.384 E46.32682
G1 X116.517 Y104.384 E49.33068
G1 X118.521 Y104.915 E49.51920 F1080.000
G1 X118.593 Y104.956 E49.52668
G1 X120.044 Y106.407 E49.71328
G1 X120.085 Y106.479 E49.72076
G1 X120.616 Y108.483 E49.90928
G1 X120.616 Y141.517 E52.91313
G1 X120.085 Y143.521 E53.10165
G1 X120.044 Y143.593 E53.10913
G1 X118.593 Y145.044 E53.29573
G1 X118.521 Y145.085 E53.30321
G1 X116.517 Y145.616 E53.49173
G1 X83.483 Y145.616 E56.49558
G1 X81.479 Y145.085 E56.68410
G1 X81.407 Y145.044 E56.69158
G1 X79.956 Y143.593 E56.87818
G1 X79.915 Y143.521 E56.88566
G1 X79.384 Y141.517 E57.07418
G1 X79.384 Y108.483 E60.07803
G1 X79.915 Y106.479 E60.26655
G1 X79.956 Y106.407 E60.27403
G1 X81.341 Y105.022 E60.45212
G1 E59.45212 F1800.00000
G92 E0
G1 X118.220 Y144.480 F7800.000
G1 E1.00000 F1800.00000
G1 X116.451 Y144.954 E1.16651 F378.000
G1 X83.549 Y144.954 E4.15825
G1 X81.780 Y144.480 E4.32476
G1 X80.520 Y143.220 E4.48682
G1 X80.046 Y141.451 E4.65333
G1 X80.046 Y108.549 E7.64508
G1 X80.520 Y106.780 E7.81158
G1 X81.780 Y105.520 E7.97365
G1 X83.549 Y105.046 E8.14016
G1 X116.451 Y105.046 E11.13190
G1 X116.511 Y105.062 E11.13760
G1 X118.220 Y105.520 E11.29841 F378.000
G1 X119.480 Y106.780 E11.46047
G1 X119.954 Y108.549 E11.62698
G1 X119.954 Y141.451 E14.61873
G1 X119.480 Y143.220 E14.78523
G1 X118.257 Y144.443 E14.94253
G1 X117.933 Y144.279 F7800.000
G1 X82.990 Y143.840 F7800.000
G1 X82.855 Y144.121 E14.97088 F540.000
G1 X82.104 Y143.920 E15.04162
G1 X81.080 Y142.896 E15.17324
G1 X80.671 Y141.369 E15.31704
G1 X80.671 Y141.138 E15.33800
G1 X80.987 Y141.088 E15.36712
G1 X81.539 Y142.785 E15.52941
G1 X82.947 Y143.809 E15.68770
G1 X83.269 Y143.270 F7800.000
G1 X82.070 Y142.399 E15.82242 F540.000
G1 X81.612 Y140.989 E15.95721
G1 X82.070 Y139.580 E16.09201
G1 X83.269 Y138.709 E16.22673
G1 X84.752 Y138.709 E16.36160 F540.000
G1 X85.951 Y139.580 E16.49632
G1 X86.409 Y140.989 E16.63111
G1 X85.951 Y142.399 E16.76591
G1 X84.752 Y143.270 E16.90063
G1 X83.321 Y143.270 E17.03073
G1 X82.986 Y143.476 F7800.000
G1 E16.03073 F1800.00000
G92 E0
G1 X80.987 Y108.916 F7800.000
G1 E1.00000 F1800.00000
G1 X80.671 Y108.866 E1.02912 F540.000
G1 X80.671 Y108.631 E1.05045
G1 X81.080 Y107.104 E1.19425
G1 X82.104 Y106.080 E1.32587
G1 X82.864 Y105.877 E1.39745
G1 X82.999 Y106.158 E1.42581
G1 X81.539 Y107.219 E1.58987
G1 X81.003 Y108.866 E1.74740
G1 X81.612 Y109.015 F7800.000
G1 X82.070 Y107.605 E1.88221 F540.000
G1 X83.269 Y106.734 E2.01692
G1 X84.752 Y106.734 E2.15179 F540.000
G1 X85.951 Y107.605 E2.28650
G1 X86.409 Y109.015 E2.42131
G1 X85.951 Y110.425 E2.55611
G1 X84.752 Y111.296 E2.69082
G1 X83.269 Y111.296 E2.82570
G1 X82.070 Y110.425 E2.96041
G1 X81.628 Y109.065 E3.09044
G1 X81.329 Y108.809 F7800.000
G1 E2.09044 F1800.00000
G92 E0
G1 X116.995 Y106.156 F7800.000
G1 E1.00000 F1800.00000
G1 X117.129 Y105.875 E1.02835 F540.000
G1 X117.896 Y106.080 E1.10055
G1 X118.920 Y107.104 E1.23217
G1 X119.329 Y108.631 E1.37597
G1 X119.329 Y108.879 E1.39845
G1 X119.013 Y108.929 E1.42757
G1 X118.457 Y107.219 E1.59108
G1 X117.037 Y106.187 E1.75064
G1 X116.744 Y106.109 F7800.000
G1 X115.041 Y106.109 E1.90552 F540.000
G1 X113.514 Y107.219 E2.07715
G1 X112.930 Y109.015 E2.24889
G1 X113.514 Y110.811 E2.42062
G1 X115.041 Y111.920 E2.59225
G1 X116.930 Y111.920 E2.76405
G1 X118.457 Y110.811 E2.93568
G1 X119.013 Y109.101 E3.09918
G1 X119.329 Y109.151 E3.12830
G1 X119.329 Y140.853 E6.01099
G1 X119.013 Y140.903 E6.04011
G1 X118.457 Y139.193 E6.20361
G1 X116.930 Y138.084 E6.37524
G1 X115.041 Y138.084 E6.54704
G1 X113.514 Y139.193 E6.71867
G1 X112.930 Y140.989 E6.89040
G1 X113.514 Y142.785 E7.06213
G1 X115.041 Y143.895 E7.23376
G1 X116.729 Y143.895 E7.38726
G1 X116.772 Y144.221 E7.41716
G1 X116.369 Y144.329 E7.45510
G1 X83.631 Y144.329 E10.43188
G1 X83.228 Y144.221 E10.46983
G1 X83.271 Y143.895 E10.49973
G1 X84.955 Y143.895 E10.65286
G1 X86.482 Y142.785 E10.82450
G1 X87.066 Y140.989 E10.99622
G1 X86.482 Y139.193 E11.16794
G1 X84.955 Y138.084 E11.33958
G1 X83.066 Y138.084 E11.51139
G1 X81.539 Y139.193 E11.68302
G1 X80.987 Y140.891 E11.84532
G1 X80.671 Y140.841 E11.87443
G1 X80.671 Y109.163 E14.75483
G1 X80.987 Y109.113 E14.78395
G1 X81.539 Y110.811 E14.94624
G1 X83.066 Y111.920 E15.11788
G1 X84.955 Y111.920 E15.28969
G1 X86.482 Y110.811 E15.46132
G1 X87.066 Y109.015 E15.63304
G1 X86.482 Y107.219 E15.80478
G1 X84.955 Y106.109 E15.97641
G1 X83.256 Y106.109 E16.13093
G1 X83.213 Y105.783 E16.16083
G1 X83.631 Y105.671 E16.20022
G1 X116.369 Y105.671 E19.17700
G1 X116.787 Y105.783 E19.21638
G1 X116.751 Y106.057 E19.24151
G1 X113.364 Y106.555 F7800.000
G1 X112.982 Y106.832 E19.28443 F540.000
G1 X112.273 Y109.015 E19.49310
G1 X112.982 Y111.197 E19.70176
G1 X114.838 Y112.545 E19.91030
G1 X117.133 Y112.545 E20.11904
G1 X118.704 Y111.403 E20.29564
G1 X118.704 Y138.601 E22.76867
G1 X117.133 Y137.459 E22.94527
G1 X114.838 Y137.459 E23.15400
G1 X112.982 Y138.807 E23.36255
G1 X112.273 Y140.989 E23.57120
G1 X112.982 Y143.172 E23.77986
G1 X113.359 Y143.445 E23.82217
G1 X113.274 Y143.704 E23.84694
G1 X86.722 Y143.704 E26.26139
G1 X86.637 Y143.445 E26.28616
G1 X87.014 Y143.172 E26.32848
G1 X87.723 Y140.989 E26.53712
G1 X87.014 Y138.807 E26.74577
G1 X85.158 Y137.459 E26.95432
G1 X82.863 Y137.459 E27.16307
G1 X81.296 Y138.598 E27.33921
G1 X81.296 Y111.406 E29.81169
G1 X82.863 Y112.545 E29.98784
G1 X85.158 Y112.545 E30.19658
G1 X87.014 Y111.197 E30.40513
G1 X87.723 Y109.015 E30.61378
G1 X87.014 Y106.832 E30.82244
G1 X86.632 Y106.555 E30.86537
G1 X86.716 Y106.296 E30.89014
G1 X113.280 Y106.296 E33.30559
G1 X113.348 Y106.505 E33.32558
G1 X108.187 Y131.229 F7800.000
G1 X108.674 Y131.554 E33.37881 F540.000
G1 X108.999 Y132.040 E33.43193
G1 X109.113 Y132.614 E33.48514
G1 X108.999 Y133.188 E33.53835
G1 X108.674 Y133.674 E33.59146
G1 X108.187 Y133.999 E33.64469
G1 X107.614 Y134.113 E33.69785
G1 X107.041 Y133.999 E33.75101
G1 X106.554 Y133.674 E33.80424
G1 X106.229 Y133.188 E33.85735
G1 X106.115 Y132.614 E33.91056
G1 X106.229 Y132.040 E33.96377
G1 X106.554 Y131.554 E34.01688
G1 X107.041 Y131.229 E34.07012
G1 X107.614 Y131.115 E34.12328 F540.000
G1 X108.136 Y131.219 E34.17166
G1 X108.478 Y131.035 F7800.000
G1 X108.535 Y130.710 F7800.000
G1 X109.125 Y131.104 E34.23619 F540.000
G1 X109.587 Y131.796 E34.31191
G1 X109.750 Y132.614 E34.38773
G1 X109.587 Y133.432 E34.46354
G1 X109.125 Y134.124 E34.53926
G1 X108.431 Y134.587 E34.61509
G1 X107.614 Y134.750 E34.69086
G1 X106.797 Y134.587 E34.76663
G1 X106.103 Y134.124 E34.84245
G1 X105.641 Y133.432 E34.91818
G1 X105.478 Y132.614 E34.99399
G1 X105.641 Y131.796 E35.06981
G1 X106.103 Y131.104 E35.14553
G1 X106.797 Y130.641 E35.22136
G1 X107.614 Y130.478 E35.29712 F540.000
G1 X108.431 Y130.641 E35.37289
G1 X108.491 Y130.680 E35.37941
G1 X108.882 Y130.190 F7800.000
G1 X109.575 Y130.653 E35.45524 F540.000
G1 X110.176 Y131.552 E35.55358
G1 X110.387 Y132.614 E35.65200
G1 X110.176 Y133.676 E35.75041
G1 X109.575 Y134.575 E35.84875
G1 X108.675 Y135.176 E35.94717
G1 X107.614 Y135.387 E36.04555
G1 X106.553 Y135.176 E36.14392
G1 X105.653 Y134.575 E36.24234
G1 X105.052 Y133.676 E36.34068
G1 X104.841 Y132.614 E36.43910
G1 X105.052 Y131.552 E36.53751
G1 X105.653 Y130.653 E36.63585
G1 X106.553 Y130.052 E36.73427
G1 X107.614 Y129.841 E36.83265 F540.000
G1 X108.675 Y130.052 E36.93103
G1 X108.838 Y130.161 E36.94884
G1 X107.614 Y118.885 F7800.000
G1 X107.041 Y118.771 E37.00200 F540.000
G1 X106.554 Y118.446 E37.05523
G1 X106.229 Y117.960 E37.10834
G1 X106.115 Y117.386 E37.16155
G1 X106.229 Y116.812 E37.21476
G1 X106.554 Y116.326 E37.26788
G1 X107.041 Y116.001 E37.32111
G1 X107.614 Y115.887 E37.37427 F540.000
G1 X108.187 Y116.001 E37.42743
G1 X108.674 Y116.326 E37.48066
G1 X108.999 Y116.812 E37.53377
G1 X109.113 Y117.386 E37.58698
G1 X108.999 Y117.960 E37.64019
G1 X108.674 Y118.446 E37.69330
G1 X108.187 Y118.771 E37.74653
G1 X107.665 Y118.875 E37.79492
G1 X107.420 Y119.176 F7800.000
G1 X107.492 Y119.498 F7800.000
G1 X106.797 Y119.359 E37.85937 F540.000
G1 X106.103 Y118.896 E37.93520
G1 X105.641 Y118.204 E38.01092
G1 X105.478 Y117.386 E38.08673
G1 X105.641 Y116.568 E38.16255
G1 X106.103 Y115.876 E38.23827
G1 X106.797 Y115.413 E38.31410
G1 X107.614 Y115.250 E38.38987 F540.000
G1 X108.431 Y115.413 E38.46563
G1 X109.125 Y115.876 E38.54146
G1 X109.587 Y116.568 E38.61718
G1 X109.750 Y117.386 E38.69300
G1 X109.587 Y118.204 E38.76881
G1 X109.125 Y118.896 E38.84454
G1 X108.431 Y119.359 E38.92036
G1 X107.614 Y119.522 E38.99613
G1 X107.543 Y119.508 E39.00267
G1 X107.370 Y120.111 F7800.000
G1 X106.553 Y119.948 E39.07842 F540.000
G1 X105.653 Y119.347 E39.17684
G1 X105.052 Y118.448 E39.27517
G1 X104.841 Y117.386 E39.37359
G1 X105.052 Y116.324 E39.47201
G1 X105.653 Y115.425 E39.57034
G1 X106.553 Y114.824 E39.66876
G1 X107.614 Y114.613 E39.76714 F540.000
G1 X108.675 Y114.824 E39.86552
G1 X109.575 Y115.425 E39.96394
G1 X110.176 Y116.324 E40.06227
G1 X110.387 Y117.386 E40.16069
G1 X110.176 Y118.448 E40.25911
G1 X109.575 Y119.347 E40.35745
G1 X108.675 Y119.948 E40.45587
G1 X107.614 Y120.159 E40.55424
G1 X107.421 Y120.121 E40.57210
G1 X93.345 Y115.259 F7800.000
G1 X93.345 Y134.741 E42.34352 F378.000
G1 X89.130 Y134.741 E42.72680
G1 X89.130 Y115.259 E44.49821
G1 X93.293 Y115.259 E44.87672
G1 X93.695 Y115.259 F7800.000
G1 X93.970 Y114.635 F7800.000
G1 X93.970 Y135.365 E46.76178 F540.000
G1 X88.505 Y135.365 E47.25870
G1 X88.505 Y114.635 E49.14376
G1 X93.918 Y114.635 E49.63591
G1 X94.595 Y114.010 F7800.000
G1 X94.595 Y135.990 E51.63461 F540.000
G1 X87.880 Y135.990 E52.24517
G1 X87.880 Y114.010 E54.24387
G1 X94.542 Y114.010 E54.84966
G1 X113.587 Y109.015 F7800.000
G1 X114.045 Y107.605 E54.98447 F540.000
G1 X115.244 Y106.734 E55.11918
G1 X116.727 Y106.734 E55.25404 F540.000
G1 X117.925 Y107.605 E55.38875
G1 X118.384 Y109.015 E55.52356
G1 X117.925 Y110.425 E55.65836
G1 X116.727 Y111.296 E55.79307
G1 X115.244 Y111.296 E55.92794
G1 X114.045 Y110.425 E56.06265
G1 X113.603 Y109.065 E56.19268
G1 X113.304 Y108.809 F7800.000
G1 X119.013 Y141.075 F7800.000
G1 X119.329 Y141.126 E56.22180 F540.000
G1 X119.329 Y141.369 E56.24390
G1 X118.920 Y142.896 E56.38770
G1 X117.896 Y143.920 E56.51932
G1 X117.138 Y144.123 E56.59068
G1 X117.004 Y143.841 E56.61903
G1 X118.457 Y142.785 E56.78236
G1 X118.997 Y141.125 E56.94109
G1 X118.384 Y140.989 F7800.000
G1 X117.925 Y142.399 E57.07589 F540.000
G1 X116.727 Y143.270 E57.21060
G1 X115.244 Y143.270 E57.34547
G1 X114.045 Y142.399 E57.48018
G1 X113.587 Y140.989 E57.61498
G1 X114.045 Y139.580 E57.74978
G1 X115.244 Y138.709 E57.88450
G1 X116.727 Y138.709 E58.01936 F540.000
G1 X117.925 Y139.580 E58.15408
G1 X118.368 Y140.939 E58.28410
G1 X118.667 Y141.195 F7800.000
G1 E57.28410 F1800.00000
G92 E0
G1 X81.827 Y112.449 F7800.000
G1 E1.00000 F1800.00000
G1 X82.690 Y113.076 E1.09731 F1080.000
G1 X85.331 Y113.076 E1.33812
G1 X87.466 Y111.525 E1.57874
G1 X88.282 Y109.015 E1.81945
G1 X87.570 Y106.827 E2.02922
G1 X112.426 Y106.827 E4.29568
G1 X111.714 Y109.015 E4.50546
